X:69
T:Callaghan's
R:hornpipe
Z:id:hn-hornpipe-69
M:C|
K:G
ABc|:dBcA GBdB|ADFE DFAF|G2GF GBdB|~A3G Agfe|
dBcA GBdB|ADFE DFAf|g2gf gdcA|G2GF GABc:|
|:dg~g2 dg~g2|dgfg ed (3Bcd|eaaf gfed|(3Bcd eg gfge|
dBcA GBdB|ADFD FAdf|g2gf gdcA|G2GF GABc:|

